!!!OTL: Jungfer Doertchen.
!!!OTL-incipit: Es ritt ein Jaeger wohlgemut,
!!!ARE: Europa, Mitteleuropa, Deutschland (), Brandenburg
!!!YOR: 3, S. 104
!!    ????
!!!SCT: Q0057Y
!!!YEM: Copyright 1995, estate of Helmut Schaffrath.
**kern	**text
*ICvox	*
!! Mixed meters:  3/4; 2/4; 3/8
*M3/4	*
*k[f#]	*
*G:	*
!LO:TX:a:t=9 Brandenburg	!
!LO:TX:a:t=Melodietafel III	!
{8d	Es
=1	=1
8g	ritt
8g	ein
4.b	Jä-
8g	-ger
=2	=2
8g	wohl-
8fn	-ge-
4.e}	-mut,
{8g	ʒwei
=3	=3
16f#X	Federn
16f#	.
8g	trug
4a	er
4f#	auf
=4	=4
8g	ſel-
8e	-nen
4d	Hut
4r;}	.
=5	=5
*M2/4	*
{4g	Ji
4d	ju
=6	=6
8e	haſ-
8d	-ſa-
8.d}	-ſa,
{16d	ja
=7	=7
*M3/8	*
8g	fi-
8d	-fa
16d	val-
16d	-le-
=8	=8
8e	-rie-
8d}	-ra,
{8d	ʒwei
=9	=9
*M3/4	*
16g	Fe-
16g	-dern
8a	trug
4b	er
4g	auf
=10	=10
8cc	ſei-
8a	-nem
4g}	Hut.
==	==
!!!AGN: Ballade, Todesahnung, Tod, Selbstmord
!! Vierte und fuenfte Zeile = Refrain auf sinnfreie Silben.
!!!ONB: ESAC (Essen Associative Code) Database: BALLADE
!!!AMT: irregular
!!!AIN: vox
!!!EED: Helmut Schaffrath
!!!EEV: 1.0
!!!source: Deutsche Volkslieder mit ihren Melodien. Herausgegeben vom Deutschen Volksliedarchiv. Dritter Band Balladen. Berlin 1954.
!!!page: 104
!!!ENC: Anna Maria Matuszewska
!!!EEV: 2025/02/20
*-	*-
